picto/arrow-straight-ahead-pointing-down-blue-framed.svg

<svg class="color-immutable" width="30" height="30" viewBox="0 0 30 30" fill="none" xmlns="http://www.w3.org/2000/svg"><g clip-path="url(#a)"><path d="M30 0H0v30h30V0Z" fill="#2D327D"/><path d="m13.5 24.75 7.5-7.5V13.5l-6 6V5.25h-3V19.5l-6-6v3.75l7.5 7.5Z" fill="#fff"/></g><defs><clipPath id="a"><path fill="#fff" d="M0 0h30v30H0z"/></clipPath></defs></svg>

<svg class="color-immutable" width="30" height="30" viewBox="0 0 30 30" fill="none" xmlns="http://www.w3.org/2000/svg"><path d="M30 0H0V30H30V0Z" fill="#2D327D"/><path d="M13.5 24.75L21 17.25V13.5L14.9993 19.5001L15 5.25H12V19.5001L6 13.5V17.25L13.5 24.75Z" fill="white"/></svg>
